X:650
T: God Speed the Plough
T: B\'i ag Treabhadh Leat
S: B.Breathnach: "Ceol Rince na hEireann" II/160
Z: B.Black
L: 1/8
M: 4/4
R: reel
K: G
D|GGGB dedB|degd egdB|cecA (3Bcd BG|FAAF GFEF|
GGGB dedB|degd egdB|cecA (3Bcd BG|1 FAAF G3 :|2 FAAF G2||
Bd|gggf gdBd|ggbg egdB|c3A B2 BG|FAAF GFEF|
g2 gf gdBd|(3gfg bg egdB|cecA (3Bcd BG|FAAF G2 :|

